assets/svg/coupon-o.svg

<?xml version="1.0" encoding="UTF-8"?>
<svg width="1000px" height="1000px" viewBox="0 0 1000 1000" version="1.1" xmlns="http://www.w3.org/2000/svg" xmlns:xlink="http://www.w3.org/1999/xlink">
    <!-- Generator: sketchtool 52.4 (67378) - http://www.bohemiancoding.com/sketch -->
    <title>coupon-o</title>
    <desc>Created with sketchtool.</desc>
    <g id="新版图标" stroke="none" stroke-width="1" fill="none" fill-rule="evenodd">
        <g id="coupon-o" fill="#323233" fill-rule="nonzero">
            <g id="圆角-优惠券">
                <path d="M55.5555556,430.555556 L55.5555556,416.666667 L55.5555556,430.555556 Z M55.5555556,569.444444 L55.5555556,583.333333 L55.5555556,569.444444 Z M944.444444,569.444444 L944.444444,583.333333 L944.444444,569.444444 Z M944.444444,430.555556 L944.444444,416.666667 L944.444444,430.555556 Z M944.444444,430.555556 L944.444444,444.444444 C913.761958,444.444444 888.888889,469.317514 888.888889,500 C888.888889,530.682486 913.761958,555.555556 944.444444,555.555556 L944.444444,777.777778 C944.444444,808.460264 919.571375,833.333333 888.888889,833.333333 L111.111111,833.333333 C80.428625,833.333333 55.5555556,808.460264 55.5555556,777.777778 L55.5555556,555.555556 C86.2380417,555.555556 111.111111,530.682486 111.111111,500 C111.111111,469.317514 86.2380417,444.444444 55.5555556,444.444444 L55.5555556,222.222222 C55.5555556,191.539736 80.428625,166.666667 111.111111,166.666667 L888.888889,166.666667 C919.571375,166.666667 944.444444,191.539736 944.444444,222.222222 L944.444444,444.444444 L888.888889,444.444444 L888.888889,222.222222 L111.111111,222.222222 L111.111111,444.444444 L55.5555556,444.444444 L55.5555556,430.555556 L55.5555556,444.444444 C86.2380417,444.444444 111.111111,469.317514 111.111111,500 C111.111111,530.682486 86.2380417,555.555556 55.5555556,555.555556 L55.5555556,569.444444 L55.5555556,555.555556 L111.111111,555.555556 L111.111111,777.777778 L888.888889,777.777778 L888.888889,555.555556 L944.444444,555.555556 L944.444444,569.444444 L944.444444,555.555556 C913.761958,555.555556 888.888889,530.682486 888.888889,500 C888.888889,469.317514 913.761958,444.444444 944.444444,444.444444 L944.444444,430.555556 Z M361.111111,388.888889 L638.888889,388.888889 C654.230132,388.888889 666.666667,401.325424 666.666667,416.666667 C666.666667,432.00791 654.230132,444.444444 638.888889,444.444444 L361.111111,444.444444 C345.769868,444.444444 333.333333,432.00791 333.333333,416.666667 C333.333333,401.325424 345.769868,388.888889 361.111111,388.888889 Z M361.111111,555.555556 L638.888889,555.555556 C654.230132,555.555556 666.666667,567.99209 666.666667,583.333333 C666.666667,598.674576 654.230132,611.111111 638.888889,611.111111 L361.111111,611.111111 C345.769868,611.111111 333.333333,598.674576 333.333333,583.333333 C333.333333,567.99209 345.769868,555.555556 361.111111,555.555556 Z" id="Combined-Shape"></path>
                <path d="M55.5555556,388.888889 C116.920528,388.888889 166.666667,438.635028 166.666667,500 C166.666667,561.364972 116.920528,611.111111 55.5555556,611.111111 L55.5555556,555.555556 C86.2380417,555.555556 111.111111,530.682486 111.111111,500 C111.111111,469.317514 86.2380417,444.444444 55.5555556,444.444444 L55.5555556,388.888889 Z M944.444444,388.888889 L944.444444,444.444444 C913.761958,444.444444 888.888889,469.317514 888.888889,500 C888.888889,530.682486 913.761958,555.555556 944.444444,555.555556 L944.444444,611.111111 C883.079472,611.111111 833.333333,561.364972 833.333333,500 C833.333333,438.635028 883.079472,388.888889 944.444444,388.888889 Z" id="Combined-Shape"></path>
            </g>
        </g>
    </g>
</svg>

<svg width="1000" height="1000" xmlns="http://www.w3.org/2000/svg"><g fill="#323233" fill-rule="nonzero"><path d="M55.556 430.556v-13.89 13.89zm0 138.888v13.89-13.89zm888.888 0v13.89-13.89zm0-138.888v-13.89 13.89zm0 0v13.888c-30.682 0-55.555 24.874-55.555 55.556s24.873 55.556 55.555 55.556v222.222c0 30.682-24.873 55.555-55.555 55.555H111.11c-30.682 0-55.555-24.873-55.555-55.555V555.556c30.682 0 55.555-24.874 55.555-55.556s-24.873-55.556-55.555-55.556V222.222c0-30.682 24.873-55.555 55.555-55.555H888.89c30.682 0 55.555 24.873 55.555 55.555v222.222H888.89V222.222H111.11v222.222H55.556v-13.888 13.888c30.682 0 55.555 24.874 55.555 55.556s-24.873 55.556-55.555 55.556v13.888-13.888h55.555v222.222H888.89V555.556h55.555v13.888-13.888c-30.682 0-55.555-24.874-55.555-55.556s24.873-55.556 55.555-55.556v-13.888zm-583.333-41.667H638.89c15.341 0 27.778 12.436 27.778 27.778 0 15.34-12.437 27.777-27.778 27.777H361.11c-15.341 0-27.778-12.436-27.778-27.777 0-15.342 12.437-27.778 27.778-27.778zm0 166.667H638.89c15.341 0 27.778 12.436 27.778 27.777 0 15.342-12.437 27.778-27.778 27.778H361.11c-15.341 0-27.778-12.436-27.778-27.778 0-15.34 12.437-27.777 27.778-27.777z"/><path d="M55.556 388.889c61.365 0 111.11 49.746 111.11 111.111s-49.745 111.111-111.11 111.111v-55.555c30.682 0 55.555-24.874 55.555-55.556s-24.873-55.556-55.555-55.556V388.89zm888.888 0v55.555c-30.682 0-55.555 24.874-55.555 55.556s24.873 55.556 55.555 55.556v55.555c-61.365 0-111.11-49.746-111.11-111.111s49.745-111.111 111.11-111.111z"/></g></svg>
